public/icons/dark-mode.svg

<?xml version="1.0" encoding="utf-8"?><!-- Uploaded to: SVG Repo, www.svgrepo.com, Generator: SVG Repo Mixer Tools -->
<svg width="800px" height="800px" viewBox="0 0 24 24" fill="none" xmlns="http://www.w3.org/2000/svg">
<path d="M8 22H16" stroke="#1C274C" stroke-width="1.5" stroke-linecap="round" stroke-linejoin="round"/>
<path d="M5 19H19" stroke="#1C274C" stroke-width="1.5" stroke-linecap="round" stroke-linejoin="round"/>
<path d="M2 16H22" stroke="#1C274C" stroke-width="1.5" stroke-linecap="round" stroke-linejoin="round"/>
<path d="M21.0672 11.8568L20.4253 11.469L21.0672 11.8568ZM12.1432 2.93276L11.7553 2.29085V2.29085L12.1432 2.93276ZM20.4806 15.6997C20.3148 16.0793 20.4881 16.5214 20.8676 16.6873C21.2472 16.8531 21.6893 16.6798 21.8552 16.3003L20.4806 15.6997ZM2.14482 16.3003C2.31066 16.6798 2.7528 16.8531 3.13237 16.6873C3.51193 16.5214 3.68519 16.0793 3.51935 15.6997L2.14482 16.3003ZM3.98703 7.37554C4.19443 7.017 4.07191 6.5582 3.71337 6.3508C3.35482 6.14339 2.89602 6.26591 2.68862 6.62446L3.98703 7.37554ZM6.62446 2.68862C6.26591 2.89602 6.14339 3.35482 6.3508 3.71337C6.5582 4.07191 7.017 4.19443 7.37554 3.98703L6.62446 2.68862ZM15.5 14.25C12.3244 14.25 9.75 11.6756 9.75 8.5H8.25C8.25 12.5041 11.4959 15.75 15.5 15.75V14.25ZM20.4253 11.469C19.4172 13.1373 17.5882 14.25 15.5 14.25V15.75C18.1349 15.75 20.4407 14.3439 21.7092 12.2447L20.4253 11.469ZM9.75 8.5C9.75 6.41182 10.8627 4.5828 12.531 3.57467L11.7553 2.29085C9.65609 3.5593 8.25 5.86509 8.25 8.5H9.75ZM21.25 12C21.25 13.3169 20.9752 14.5677 20.4806 15.6997L21.8552 16.3003C22.431 14.9824 22.75 13.5275 22.75 12H21.25ZM3.51935 15.6997C3.02475 14.5677 2.75 13.3169 2.75 12H1.25C1.25 13.5275 1.56904 14.9824 2.14482 16.3003L3.51935 15.6997ZM12 2.75C11.9115 2.75 11.8077 2.71008 11.7324 2.63168C11.6686 2.56527 11.6538 2.50244 11.6503 2.47703C11.6461 2.44587 11.6482 2.35557 11.7553 2.29085L12.531 3.57467C13.0342 3.27065 13.196 2.71398 13.1368 2.27627C13.0754 1.82126 12.7166 1.25 12 1.25V2.75ZM21.7092 12.2447C21.6444 12.3518 21.5541 12.3539 21.523 12.3497C21.4976 12.3462 21.4347 12.3314 21.3683 12.2676C21.2899 12.1923 21.25 12.0885 21.25 12H22.75C22.75 11.2834 22.1787 10.9246 21.7237 10.8632C21.286 10.804 20.7293 10.9658 20.4253 11.469L21.7092 12.2447ZM2.75 12C2.75 10.3139 3.20043 8.73533 3.98703 7.37554L2.68862 6.62446C1.77351 8.2064 1.25 10.0432 1.25 12H2.75ZM7.37554 3.98703C8.73533 3.20043 10.3139 2.75 12 2.75V1.25C10.0432 1.25 8.2064 1.77351 6.62446 2.68862L7.37554 3.98703Z" fill="#1C274C"/>
<path d="M19.9001 2.30719C19.7392 1.8976 19.1616 1.8976 19.0007 2.30719L18.5703 3.40247C18.5212 3.52752 18.4226 3.62651 18.298 3.67583L17.2067 4.1078C16.7986 4.26934 16.7986 4.849 17.2067 5.01054L18.298 5.44252C18.4226 5.49184 18.5212 5.59082 18.5703 5.71587L19.0007 6.81115C19.1616 7.22074 19.7392 7.22074 19.9001 6.81116L20.3305 5.71587C20.3796 5.59082 20.4782 5.49184 20.6028 5.44252L21.6941 5.01054C22.1022 4.849 22.1022 4.26934 21.6941 4.1078L20.6028 3.67583C20.4782 3.62651 20.3796 3.52752 20.3305 3.40247L19.9001 2.30719Z" stroke="#1C274C"/>
<path d="M16.0328 8.12967C15.8718 7.72009 15.2943 7.72009 15.1333 8.12967L14.9764 8.52902C14.9273 8.65407 14.8287 8.75305 14.7041 8.80237L14.3062 8.95987C13.8981 9.12141 13.8981 9.70107 14.3062 9.86261L14.7041 10.0201C14.8287 10.0694 14.9273 10.1684 14.9764 10.2935L15.1333 10.6928C15.2943 11.1024 15.8718 11.1024 16.0328 10.6928L16.1897 10.2935C16.2388 10.1684 16.3374 10.0694 16.462 10.0201L16.8599 9.86261C17.268 9.70107 17.268 9.12141 16.8599 8.95987L16.462 8.80237C16.3374 8.75305 16.2388 8.65407 16.1897 8.52902L16.0328 8.12967Z" stroke="#1C274C"/>
</svg>

<svg width="800" height="800" viewBox="0 0 24 24" fill="none" xmlns="http://www.w3.org/2000/svg"><path d="M8 22h8M5 19h14M2 16h20" stroke="#1C274C" stroke-width="1.5" stroke-linecap="round" stroke-linejoin="round"/><path d="M21.067 11.857l-.642-.388.642.388zm-8.924-8.924l-.388-.642.388.642zM20.481 15.7a.75.75 0 001.374.6l-1.374-.6zm-18.336.6a.75.75 0 001.374-.6l-1.374.6zm1.842-8.924a.75.75 0 00-1.298-.752l1.298.752zm2.637-4.687a.75.75 0 10.752 1.298l-.752-1.298zM15.5 14.25A5.75 5.75 0 019.75 8.5h-1.5a7.25 7.25 0 007.25 7.25v-1.5zm4.925-2.781A5.746 5.746 0 0115.5 14.25v1.5a7.247 7.247 0 006.21-3.505l-1.285-.776zM9.75 8.5a5.747 5.747 0 012.781-4.925l-.776-1.284A7.246 7.246 0 008.25 8.5h1.5zm11.5 3.5a9.216 9.216 0 01-.77 3.7l1.375.6c.576-1.318.895-2.773.895-4.3h-1.5zM3.52 15.7a9.216 9.216 0 01-.77-3.7h-1.5c0 1.527.319 2.982.895 4.3l1.374-.6zM12 2.75a.384.384 0 01-.268-.118.285.285 0 01-.082-.155c-.004-.031-.002-.121.105-.186l.776 1.284c.503-.304.665-.861.606-1.299-.062-.455-.42-1.026-1.137-1.026v1.5zm9.71 9.495c-.066.107-.156.109-.187.105a.285.285 0 01-.155-.082.384.384 0 01-.118-.268h1.5c0-.717-.571-1.075-1.026-1.137-.438-.059-.995.103-1.299.606l1.284.776zM2.75 12c0-1.686.45-3.265 1.237-4.624l-1.298-.752A10.704 10.704 0 001.25 12h1.5zm4.626-8.013A9.204 9.204 0 0112 2.75v-1.5c-1.957 0-3.794.524-5.376 1.439l.752 1.298z" fill="#1C274C"/><path d="M19.9 2.307a.483.483 0 00-.9 0l-.43 1.095a.484.484 0 01-.272.274l-1.091.432a.486.486 0 000 .903l1.091.432c.125.049.223.148.272.273L19 6.81c.162.41.74.41.9 0l.43-1.095a.484.484 0 01.273-.273l1.091-.432a.486.486 0 000-.903l-1.091-.432a.484.484 0 01-.273-.274l-.43-1.095zM16.033 8.13a.483.483 0 00-.9 0l-.157.399a.484.484 0 01-.272.273l-.398.158a.486.486 0 000 .903l.398.157c.125.05.223.148.272.274l.157.399c.161.41.739.41.9 0l.157-.4a.484.484 0 01.272-.273l.398-.157a.486.486 0 000-.903l-.398-.158a.484.484 0 01-.272-.273l-.157-.4z" stroke="#1C274C"/></svg>
